X:021
T:Blue Eyed Stranger
M:4/4
L:1/8
K:G
D | G2 D2 D2 GF | ED EF G2 GA | B2 d2 cB AG | E2 F2 G3 D | 
G2 D2 D2 GF | ED EF G2 A2 | B2 d2 cB AG |1 E2 F2 G3 :|2 E2 F2 G4 || 
GA Bc d2 d2 | ed cB A2 d2 | GA Bc d2 d2 | B3c d4 | 
GA Bc d2 d2 | ed cB A2 GA | B 2d2 cB AG | E2 F2 G4 :| 

